X:1
T:Title
%%score ( 1 2 ) { ( 3 5 ) | 4 }
L:1/8
Q:1/4=120
M:6/8
K:F
V:1 treble nm="MusicXML Part"
V:2 treble 
V:3 treble nm="MusicXML Part"
V:5 treble 
V:4 bass 
V:1
"^Gesang.""^Sehr ruhig.""^(Molto tranquillo.)""^Voice." z6 x2 |: %1
w: |
 z2"^Engelbert Humperdinck (1854-1921)""^Wiegenlied.""^(Elisabeth Ebeling.)" A"^|""^Cradle Song.""^(English words by John Bernhoff.)" ACA x2 | %2
w: Es schau- keln die|
 ACC FGA | BCC GAB | c2 f ABG | F2 z z2 A | AAA ddd | ^cde"^rit." f3- | f2"^a tempo" f fed x2 | %9
w: Win- de das Nest in der|Lin- de, da schlie- ßen sich|schnell die Äu- ge- lein|hell. Da|schla- fen vom Flü- gel der|Mut- ter ge- deckt|* die Vö- gel- chen|
 =cFB ACG x2 | F2 z z2 z x2 | z2 A ACA x2 | ACC FGA | BCC GAB | c2 f ABG | F2 z z2 A | AAA ddd | %17
w: süß bis der Mor- gen sie|weckt.|Bei Müt- ter- lein|lie- gen die Läm- mer und|schmie- gen ans Fell sich so|dicht und re- gen sich|nicht. Die|Ster- ne nur geh'n in der|
 ^cde"^rit." f3- | f2"^a tempo" f fed x2 | cFB ACG x2 | F2 z z2 z x2 :| z6 x2 | !fermata!z6 |] %23
w: Nacht nicht zur Ruh';|* sie schlie- ßen die|strah- len- den Au- gen nicht|zu.|||
V:2
 x8 |: z2 x xxx x2 | xxx xxx | xxx xxx | x2 x xxx | x2 x3 x | xxx xxx | xxx x3- | x2 x xxx x2 | %9
w: |||||||wings,||
 xxx xxx x2 | x2 x6 | z2 x xxx x2 | xxx xxx | xxx xxx | x2 x xxx | x2 x3 x | xxx xxx | xxx x3- | %18
w: ||||||||moon|
 x2 x xxx x2 | xxx xxx x2 | x2 x6 :| x8 | z6 |] %23
w: |||||
V:3
 z2 (C [FA]C[FA]) x2 |: z2 (C [FA]C[FA]) x2 | z2 (C F[EG][DA]) | [EB]2 C ([EG][FA][EB] | %4
 c2) f ABG | F z (C [FA]C[FA]) | z A,[FA]z!<(!xx-!<)! |!<(! xxx!<)! [Fdf]2 (A | %8
 [df]A[df]- [df][=ce][Bd] x2 | [Fc]) z ([DFB] [CFA]) z [B,EG] x2 | [A,CF] z (C [FA]C[FA]) x2 | %11
 z2 (C [FA]C[FA]) x2 | z2 C F[EG][DA] | [EB]2 C ([EG][FA][EB] | c2) f (ABG) | F z (C [FA]C[FA]) | %16
 z A,[FA]zxx- |!<(! xxx!<)! [Fdf]2 A | [df]A[df]- [df][ce][Bd] x2 | %19
!>(! [Fc] z ([DFB] [CFA]) z ([B,EG] x2!>)! | [A,CF]) z (C [FA]C[FA]) x2 :| z2 (C [FA]C[FA]-) x2 | %22
 [FA] z z!pp! !fermata![cfa]3 |] %23
V:4
 x2!p!"^Piano." (F,, C,A,- A,A,C, |: x2 F,, (C,A,-) A,A,C, | F,,) (C,A,- A,G,F,) | %3
 G,, C,B,- B,A,G, | A,, (C2 C,) z C,, | F,, (C,[F,A,]-) [F,A,](C,F,, | D,,) (F,2 F,,) A,2 | %7
 A,, A,2 D, A,"^rit."[DF]- | %8
 x2 [DF]2"^a tempo""^© 2009 by CPDL. \nThis edition can be fully distributed, duplicated, performed, and recorded. \nEdited by Christoph Lahme." [DF]G,, [D,B,]E, | %9
 x2!>(! A,, (F,B,,C,) z C,,!>)! | x2 F,, (C,A,- A,A,C,) | x2 F,, (C,A,- A,A,C, | %12
 F,,) (C,A,- A,G,F,) | G,, C,B,- B,A,G, | A,, (C2 C,) z C,, | F,, (C,[F,A,]-) [F,A,](C,F,, | %16
 D,,) (F,2 F,,) A,2 | A,, (A,2 D,) A,"^rit."[DF]- | x2 [DF]2"^a tempo" [DF]G,, ([D,B,]E,) | %19
 x2"^3.\n               Wenn aber mit Lachen\n               die Kinder erwachen,\n               das Lämmchen sich reckt,\n               der Vogel sich streckt,\nDann müssen die Sterne, ob groß oder klein,\nsie müssen ins himmlische Bettchen hinein.\n                                   4.\n                Denn der darf nicht singen\n                am Morgen und springen,\n                wer während der Nacht\n                herum tollt und wacht.\nDrum schlaf nur, mein Liebling, schlaf selig und fest,\nwie's Lämmchen im Stall, wie der Vogel im Nest!" A,, F,B,,C, z C,, | %20
 x2 F,, (C,A,- A,A,C,) :| %21
 x2"^3. \n                Till day-light is breaking\n                The children are waking,\n                The lambkins do bleat\n                And birdies sing sweet.\nThe stars then must go to their heavenly bed,\nAs soon as the sun his bright radiance doth shed.\n                                    4.\n                 If others but knew it,\n                 How night-prowlers rue it,\n                 They'd all go to sleep\n                 When stars 'gin to peep;\nThen sleep, baby darling, on mother's soft breast,\nLike lambkin in fold, like the bird in its nest." F,, (C,A,- A,A,C,) | %22
"^Version 1.0 (2009/10/18)" F,, z z x3 |] %23
V:5
 x8 |: x8 | x2 C- C- C2- | C2 C- C C2 | F3- FD[B,E] | A, x5 | x4 D[Ad] | [A^c][=Bd][Gce] x3 | x8 | %9
 x8 | x8 | x8 | x2 C- C- C2- | C2 C- C C2 | (F3- FD[B,E]) | A, x5 | x4 D[Ad] | %17
 ([A^c][=Bd])[Gce] x3 | x8 | x8 | x8 :| x8 | x3 !fermata![FA]3 |] %23

